X:1
T:Le Onde
T:Le Onde
%%score { 1 | 2 } 3 4
L:1/8
M:3/4
K:D
V:1 treble nm="Piano" snm="Pno."
V:2 bass 
V:3 bass nm="Violoncello" snm="Vc."
V:4 alto nm="Viola" snm="Vla."
V:1
|: z6 | z6 | z6 | z6 :| dF cE AD | dF cE AD | BD AD GD | F6 | z6 | dF cE AD | dF cE AD | cE dE cE | %12
 B6 | z6 | dF cE AD | dF cE AD | BD AD GD | F6 | z6 | dF cE AD | dF cE AD | cE dE cE | B6 | z6 | %24
 fA eG dF | fA eG dF | fA eG dF | fA gB eG | fA eG dF | eG dG cG | d6 | z6 | fA eG dF | fA eG dF | %34
 fA eG dF | fA gB ad | fA eG dF | eG dG cG | d6 | z6 | d'f c'e ad | d'f c'e ad | bd ad gd | a6- | %44
 a6 | d'f c'e ad | d'f c'e ad | bd c'd d'd | a6- | a6 | d'f c'e ad | d'f c'e ad | bd ad gd | a6- | %54
 a4 fA | gB fA eG | eG dG cG | d6 | z4 fA | gB fA eG | eG dG cG | d6 | z6 | d3 D Ad | =c3 D Ac | %65
 _B3 D =FB | B3 D =FB | d3 D Ad | =c3 D Ac | _B3 D =FB | B3 D =FB | d6- | d6 | z6 | z6 | z6 | z6 | %77
 z6 | z6 | GF ED CD | ED CD EC | z6 | z6 | z6 | z6 | z6 | z6 | GF ED CD | ED CD EC | dF cE AD | %90
 dF cE AD | BD AD GD | F6 | z6 | dF cE AD | dF cE AD | cE dE cE | B6 | z6 | dF cE AD | dF cE AD | %101
 BD AD GD | F6 | z6 | dF cE AD | dF cE AD | cE dE cE | B6 | z6 | fA eG dF | fA eG dF | fA eG dF | %112
 fA gB eG | fA eG dF | eG dG cG | d6 | z6 | fA eG dF | fA eG dF | fA eG dF | fA gB ad | fA eG dF | %122
 eG dG cG | d6 | z6 | d'f c'e ad | d'f c'e ad | bd ad gd | a6- | a6 | d'f c'e ad | d'f c'e ad | %132
 bd ad gd | a6- | a6 | d'f c'e ad | d'f c'e ad | bd ad gd | a6- | a4 fA | gB fA eG | d4 fA | %142
 gB fA eG | d4 fA | gB fA eG | eG dG cG | d6 | z6 | d3 D Ad | =c3 D Ac | _B3 D FB | B3 D =FB | %152
 d3 D Ad | =c3 D Ac | _B3 D FB | B3 D =FB | d'f c'e ad | d'f c'e ad | =c'=f _be fd | =c'=f be fd | %160
 d'f c'e ad | d'f c'e ad | =c'=f _be fd | =c'=f be fd | d'6- | d'6- | d'4 z2 | z6 | z6 |] %169
V:2
|: (B,,F, B,C DF) | (B,,F, B,C DF) | (G,,F, B,C DF) | (A,,F, B,C DF) :| B,,F, B,4 | B,,F, B,4 | %6
 G,,F, B,4 | (B,,F, B,C DF) | (B,,F, B,C DF) | G,,F, B,4 | G,,F, B,4 | A,,E, B,4 | (B,,F, B,C DF) | %13
 (B,,F, B,C DF) | B,,F, B,4 | D,A, D4 | G,,D, G,A, B,2 | D,,A,, D,E, F,D | D,,A,, D,E, F,D | %19
 B,,F, B,4 | F,,C, A,B, C2 | A,,E, B,4 | (B,,F, B,C DF) | (B,,F, B,C DF) | D,A, D4 | A,,E, A,4 | %26
 B,,F, B,4 | G,,D, B,4 | D,A, D4 | A,,E, A,4 | (B,,F, B,C DF) | ((G,,D, G,A, B,D)) | D,A, D4 | %33
 A,,E, A,4 | B,,F, B,4 | G,,D, G,A, B,2 | D,A, D4 | A,,E, A,B, C2 | =F,,=C, =F,G, A,D | %39
 G,,D, G,A, B,D | D,,A,, D,E, F,2 | B,,F, B,C D2 | G,,D, G,A, B,2 | D,,A,, D,E, F,e | %44
 D,,A,, D,E, F,e | B,,F, B,C D2 | F,,C, A,B, C2 | G,,D, G,A, B,2 | D,,A,, D,E, F,e | %49
 D,,A,, D,E, F,e | D,,A,, D,E, F,2 | B,,F, B,C D2 | G,,D, G,A, B,2 | D,,A,, D,E, F,e | %54
 D,,A,, D,E, F,2 | G,,D, G,A, B,2 | A,,E, A,B, C2 | (B,,F, B,C DF) | G,,D, G,A, B,2 | %59
 G,,D, G,A, B,2 | A,,E, A,B, C2 | (B,,F, B,C DF) | ((G,,D, G,A, B,D)) | D,,A,, D,E, F,2 | %64
 D,,A,, D,E, F,2 | D,,_B,, D,E, =F,2 | D,,B,, D,E, =F,2 | D,,A,, D,E, F,2 | D,,A,, D,E, F,2 | %69
 D,,_B,, D,E, =F,2 | D,,B,, D,E, =F,2 | D,,A,, D,E, F,D | D,,A,, D,E, F,D | (B,,F, B,C DF) | %74
 (B,,F, B,C DF) | (G,,F, B,C DF) | (A,,F, B,C DF) | (B,,F, B,C DF) | (B,,F, B,C DF) | G,,F, B,4 | %80
 A,,E, B,4 | (B,,F, B,C DF) | (B,,F, B,C DF) | (G,,F, B,C DF) | (A,,F, B,C DF) | (B,,F, B,C DF) | %86
 (B,,F, B,C DF) | G,,F, B,4 | A,,E, B,4 | B,,F, B,4 | B,,F, B,4 | B,,G, B,4 | B,,A, B,C DF | %93
 B,,^G, B,C DF | B,,G, B,4 | B,,A, B,4 | B,,^G, B,4 | B,,G, B,C DF | (B,,F, B,C DF) | B,,F, B,4 | %100
 B,,F, B,4 | G,,F, B,4 | (D,,A,, D,E, F,F) | ((D,,A,, D,E, F,F)) | B,,F, B,4 | F,,C, A,B, C2 | %106
 A,,E, B,4 | (B,,F, B,C DF) | (B,,F, B,C DF) | D,A, D4 | A,,E, A,4 | B,,F, B,4 | G,,F, B,4 | %113
 D,A, D4 | A,,E, A,4 | (B,,F, B,C DF) | (G,,F, B,C DF) | D,A, D4 | A,,E, A,4 | B,,F, B,4 | %120
 G,,D, G,A, B,2 | D,A, D4 | A,,E, A,B, C2 | =F,,=C, =F,G, A,D | G,,D, G,A, B,D | D,,A,, D,E, F,2 | %126
 B,,F, B,C D2 | G,,D, G,A, B,2 | D,,A,, D,E, F,e | D,,A,, D,E, F,e | D,,A,, D,E, F,2 | %131
 B,,F, B,C D2 | G,,D, G,A, B,2 | D,,A,, D,E, F,e | D,,A,, D,E, F,e | D,,A,, D,E, F,2 | %136
 B,,F, B,C D2 | G,,D, G,A, B,2 | D,,A,, D,E, F,e | D,,A,, D,E, F,2 | G,,D, G,A, B,2 | %141
 B,,F, B,C D2 | E,,B,, E,F, G,2 | D,,A,, D,E, F,2 | G,,D, G,A, B,2 | A,,E, A,B, C2 | %146
 =F,,=C, =F,G, A,D | G,,D, G,A, B,D | D,,A,, D,E, F,2 | D,,A,, D,E, F,2 | D,,_B,, D,E, =F,2 | %151
 D,,B,, D,E, =F,2 | D,,A,, D,E, F,2 | D,,A,, D,E, F,2 | D,,_B,, D,E, =F,2 | D,,B,, D,E, =F,2 | %156
 D,,A,, D,E, F,2 | D,,A,, D,E, F,2 | D,,_B,, D,E, =F,2 | D,,B,, D,E, =F,2 | D,,A,, D,E, F,2 | %161
 D,,A,, D,E, F,2 | D,,_B,, D,E, =F,2 | D,,B,, D,E, =F,2 | D,,A,, D,E, F,d | D,,A,, D,E, F,d | %166
 D,,A,, D,E, F,d | D,,A,, D,E, F,2- | F,6 |] %169
V:3
|: B,,6 | B,,6 | G,,6 | A,,6 :| B,,6 | B,,6 | G,,6 | B,,6 | B,,6 | G,,6 | G,,6 | A,,6 | B,,6 | %13
 B,,6 | B,,6 | D,6 | G,,6 | A,,6 | D,,6 | B,,6 | F,,6 | A,,6 | B,,6 | B,,6 | D,6 | A,,6 | B,,6 | %27
 G,,6 | D,6 | A,,6 | B,,6 | G,,6 | D,6 | A,,6 | B,,6 | G,,6 | D,6 | A,,6 | =F,,6 | G,,6 | D,6 | %41
 B,,6 | G,,6 | D,,6 | D,,6 | D,6 | F,,6 | G,,6 | D,6 | D,6 | D,,6 | B,,6 | G,,6 | D,,6 | D,,6 | %55
 G,,6 | A,,6 | B,,6 | G,,6 | G,,6 | A,,6 | B,,6 | G,,6 | D,,6 | D,,6 | D,,6 | D,,6 | D,,6 | D,,6 | %69
 D,,6 | D,,6 | D,,6 | D,,6 | B,,6 | B,,6 | G,,6 | A,,6 | B,,6 | B,,6 | G,,6 | A,,6 | B,,6 | B,,6 | %83
 G,,6 | A,,6 | B,,6 | B,,6 | G,,6 | A,,6 | B,,6 | B,,6 | G,,6 | B,,6 | B,,6 | B,,6 | B,,6 | B,,6 | %97
 B,,6 | B,,6 | B,,6 | B,,6 | G,,6 | D,,6 | D,,6 | B,,6 | F,,6 | A,,6 | B,,6 | B,,6 | D,6 | A,,6 | %111
 B,,6 | G,,6 | D,,6 | A,,6 | B,,6 | G,,6 | D,,6 | A,,6 | B,,6 | G,,6 | D,,6 | A,,6 | =F,,6 | G,,6 | %125
 D,,6 | B,,6 | G,,6 | D,,6 | D,,6 | D,,6 | B,,6 | G,,6 | D,,6 | D,,6 | D,,6 | B,,6 | G,,6 | D,,6 | %139
 D,,6 | G,,6 | B,,6 | E,,6 | D,,6 | G,,6 | A,,6 | =F,,6 | G,,6 | D,,6 | D,,6 | D,,6 | D,,6 | D,,6 | %153
 D,,6 | D,,6 | D,,6 | D,,6 | D,,6 | D,,6 | D,,6 | D,,6 | D,,6 | D,,6 | D,,6 | D,,6 | D,,6 | D,,6 | %167
 D,,6 | z6 |] %169
V:4
|: z6 | z6 | z6 | z6 :| D2 C2 A,2 | D2 C2 A,2 | B,2 A,2 G,2 | F,6 | z6 | D2 C2 A,2 | D2 C2 A,2 | %11
 C2 D2 C2 | B,6 | z6 | F3 D3 | D,A, CD EF | F3 D3 | D,A, CD EF | D,A, CD EF | F3 D3 | F,A, CD EF | %21
 E,A, CD EF | B,6 | z6 | F2 E2 D2 | F2 E2 D2 | F2 E2 D2 | F2 G2 E2 | A,/D/F/A/ d2 A2 | GF ED C2 | %30
 D6 | z6 | A,/D/F/A/ d2 A2 | GF ED C2 | D6 | F2 G2 A2 | F2 E2 D2 | E2 D2 C2 | D6 | z6 | CD D3 D | %41
 CD D3 D | CD D3 D | D6- | D6 | CD D3 D | CD D3 D | CD D3 E | F6 | z6 | d2 c2 A2 | d2 c2 A2 | %52
 B2 A2 G2 | A6 | z4 F2 | G2 F2 E2 | E2 D2 C2 | D6 | z4 F2 | G2 F2 E2 | E2 D2 C2 | D6 | z6 | z6 | %64
 z6 | z6 | z6 | D,/E,/=F, A,D =Fd | D,/E,/=F, A,=C A=c | D,/E,/=F, _B,D =F_B | D,/E,/=F, B,D =FB | %71
 z6 | z6 | z6 | z6 | z6 | z6 | z6 | z6 | z6 | z6 | z6 | z6 | z6 | z6 | z6 | z6 | z6 | z6 | %89
 D2 C2 A,2 | D2 C2 A,2 | B,2 A,2 G,2 | F,6 | z6 | D2 C2 A,2 | D2 C2 A,2 | C2 D2 C2 | B,6 | z6 | %99
 D2 C2 A,2 | D2 C2 A,2 | B,2 A,2 G,2 | F,2 z4 | z6 | D2 C2 A,2 | D2 C2 A,2 | C2 D2 C2 | B,2 z4 | %108
 z6 | F2 E2 D2 | F2 E2 D2 | F2 E2 D2 | F2 G2 E2 | F2 E2 D2 | E2 D2 C2 | D6 | z6 | F2 E2 D2 | %118
 F2 E2 D2 | F2 E2 D2 | F2 G2 A2 | F2 E2 D2 | E2 D2 C2 | D6 | z6 | d2 c2 A2 | d2 c2 A2 | B2 A2 G2 | %128
 A6 | z6 | d2 c2 A2 | d2 c2 A2 | B2 A2 G2 | A6 | z6 | d2 c2 A2 | d2 c2 A2 | B2 A2 G2 | A6 | z4 F2 | %140
 G2 F2 E2 | D4 F2 | G2 F2 E2 | D2 z2 F2 | G2 F2 E2 | E2 D2 C2 | D6 | z6 | D3 D, A,D | =C3 D, A,C | %150
 _B,3 D, F,B, | B,3 D, =F,B, | D3 D, A,D | =C3 D, A,C | _B,3 D, F,B, | B,3 D, =F,B, | D6- | D6- | %158
 D6- | D6- | D4 z2 | D6- | D6- | D6- | D6- | D4 z2 | z6 | z6 | z6 |] %169

